Sources/FrostedUI/Resources/Icons.xcassets/folderAdd20.imageset/folder-add-20.svg

<svg width="20" height="20" viewBox="0 0 20 20" fill="none" xmlns="http://www.w3.org/2000/svg" data-fui-icon="true">
  <path
    d="M5.70215 2C6.39202 2.00007 7.02689 2.37777 7.35547 2.98438L8.33887 4.80078C8.40526 4.92335 8.53347 4.99993 8.67285 5H17.96C19.0866 5 20 5.91338 20 7.04004V9.25C20 9.66421 19.6642 10 19.25 10C18.8358 10 18.5 9.66421 18.5 9.25V7.04004C18.5 6.74181 18.2582 6.5 17.96 6.5H8.67285C7.98298 6.49993 7.34811 6.12223 7.01953 5.51562L6.03613 3.69922C5.96974 3.57665 5.84153 3.50007 5.70215 3.5H2.04004C1.74181 3.5 1.5 3.74181 1.5 4.04004V15.96C1.5 16.2582 1.74181 16.5 2.04004 16.5H11.25C11.6642 16.5 12 16.8358 12 17.25C12 17.6642 11.6642 18 11.25 18H2.04004C0.913378 18 0 17.0866 0 15.96V4.04004C0 2.91338 0.913378 2 2.04004 2H5.70215ZM16 10C16.4142 10 16.75 10.3358 16.75 10.75V13.25H19.25C19.6642 13.25 20 13.5858 20 14C20 14.4142 19.6642 14.75 19.25 14.75H16.75V17.25C16.75 17.6642 16.4142 18 16 18C15.5858 18 15.25 17.6642 15.25 17.25V14.75H12.75C12.3358 14.75 12 14.4142 12 14C12 13.5858 12.3358 13.25 12.75 13.25H15.25V10.75C15.25 10.3358 15.5858 10 16 10Z"
    fill="currentColor"
  />
</svg>

<svg xmlns="http://www.w3.org/2000/svg" width="20" height="20" fill="none" data-fui-icon="true" viewBox="0 0 20 20"><path fill="currentColor" d="M5.702 2c.69 0 1.325.378 1.653.984l.984 1.817A.38.38 0 0 0 8.673 5h9.287A2.04 2.04 0 0 1 20 7.04v2.21a.75.75 0 0 1-1.5 0V7.04a.54.54 0 0 0-.54-.54H8.673a1.88 1.88 0 0 1-1.653-.984l-.984-1.817a.38.38 0 0 0-.334-.199H2.04a.54.54 0 0 0-.54.54v11.92c0 .298.242.54.54.54h9.21a.75.75 0 0 1 0 1.5H2.04A2.04 2.04 0 0 1 0 15.96V4.04A2.04 2.04 0 0 1 2.04 2zM16 10a.75.75 0 0 1 .75.75v2.5h2.5a.75.75 0 0 1 0 1.5h-2.5v2.5a.75.75 0 0 1-1.5 0v-2.5h-2.5a.75.75 0 0 1 0-1.5h2.5v-2.5A.75.75 0 0 1 16 10"/></svg>
